X:2878
L:1/8
Q:1/4=120
M:6/8
K:D
"^Quick" (d'/c'/) | .b.a.g .f.e.d | (f>gf) .f(d'c') | .b.a.g .f.e.d | (e>fe) .e(d'c') | 
 .b.a.g f.e.d | (f>gf) f2 a | .a>b.c' (d'a).f | (e>fe) e :: f.g/ | (a2 f) (a2 f) | 
 (a2 f) .a(d'c') | (b2 g) (b2 g) | (b2 g) .b2 .c' | (.d'2 e' f'2 f') | (d'c').b (ag).f | 
 (a>b)c' (d'a).f | (e>fe) .e :|

